tools/download-figma-icons/icons/solid/tag-electricity.svg

<svg width="24" height="24" viewBox="0 0 24 24" fill="none" xmlns="http://www.w3.org/2000/svg">
<path fill-rule="evenodd" clip-rule="evenodd" d="M16.2372 14.1902L12.4498 17.9401L9.28483 21.0675C9.20983 21.1358 9.11984 21.1733 9.02234 21.1733C8.94734 21.1733 8.87234 21.15 8.80484 21.1058C8.66234 21 8.60235 20.8051 8.67734 20.6476L9.90732 17.9401L10.5598 16.5001H8.53485C8.40735 16.5001 8.29485 16.4401 8.21985 16.3284C8.15236 16.2226 8.14486 16.0876 8.19735 15.9752L10.5073 10.8978C10.5673 10.7703 10.7023 10.6803 10.8448 10.6803H13.9122C14.0397 10.6803 14.1597 10.7478 14.2272 10.8535C14.2947 10.9578 14.3022 11.0928 14.2497 11.2127L13.3797 13.1327L16.0347 13.5527C16.1697 13.576 16.2897 13.6734 16.3347 13.8077C16.3722 13.9427 16.3422 14.0852 16.2372 14.1902ZM10.9198 4.75537C11.2723 5.37036 11.4673 6.0461 11.5123 6.78033C11.5348 7.18532 11.8648 7.49282 12.2547 7.49282C12.2697 7.49282 12.2847 7.49282 12.2997 7.48607C12.7122 7.46282 13.0347 7.11108 13.0047 6.69858C12.9522 5.8586 12.7572 5.07862 12.4197 4.35863C13.6647 4.44038 14.6547 5.47536 14.6547 6.74283C14.6547 8.06281 13.5747 9.13603 12.2622 9.13603C10.9423 9.13603 9.8623 8.06281 9.8623 6.74283C9.8623 5.9186 10.2823 5.19036 10.9198 4.75537ZM14.1972 1.75544C14.0697 1.72544 13.9422 1.69544 13.8147 1.66619C13.6947 1.63619 13.5672 1.62044 13.4397 1.59794C13.3122 1.57619 13.1847 1.56044 13.0572 1.54619C12.9222 1.53794 12.7947 1.52294 12.6597 1.51619C12.5622 1.50794 12.4647 1.50794 12.3672 1.50794H12.2623C12.1273 1.50794 11.9923 1.50794 11.8648 1.51619C11.7373 1.52294 11.6173 1.53044 11.4973 1.54619C11.4748 1.54619 11.4523 1.54619 11.4298 1.55294C11.3248 1.56044 11.2198 1.57619 11.1148 1.59044C10.8298 1.63619 10.5598 1.69544 10.2898 1.76369C8.28733 0.173722 5.99988 0.0162253 5.85738 0.000475635C5.43739 -0.0137741 5.0924 0.29372 5.0624 0.712961C5.0399 1.12545 5.35489 1.4787 5.76738 1.50044C5.79738 1.50044 7.16985 1.60619 8.58732 2.43043C8.30983 2.58117 8.03984 2.74542 7.78484 2.92542C7.70984 2.98616 7.62734 3.04616 7.55235 3.10616C7.33485 3.27041 7.12485 3.45116 6.92986 3.63865C6.79486 3.7729 6.65986 3.9079 6.53237 4.05039L6.52487 4.05789C6.40487 4.19289 6.28487 4.33539 6.16487 4.48613C6.05238 4.63613 5.93988 4.79363 5.82738 4.95112C5.75988 5.04862 5.69988 5.15287 5.63239 5.25787C5.57239 5.36287 5.51239 5.46786 5.45239 5.57361C5.38489 5.70111 5.32489 5.82861 5.26489 5.9486C5.25739 5.97035 5.24239 5.99285 5.22739 6.02285C5.19739 6.09785 5.16739 6.1736 5.1374 6.24785C4.7324 7.17108 4.49991 8.19031 4.49991 9.26354V22.8825C4.49991 23.4975 5.0024 24 5.61739 24H18.8996C19.5146 24 20.0171 23.4975 20.0171 22.8825V9.26354C20.0171 5.64786 17.5421 2.61117 14.1972 1.75544Z" fill="black"/>
</svg>

<svg xmlns="http://www.w3.org/2000/svg" width="24" height="24" fill="none" viewBox="0 0 24 24"><path fill="currentColor" fill-rule="evenodd" d="m16.237 14.19-3.787 3.75-3.165 3.127a.4.4 0 0 1-.263.106.4.4 0 0 1-.217-.067.38.38 0 0 1-.128-.458l1.23-2.708.653-1.44H8.535a.37.37 0 0 1-.338-.525l2.31-5.077a.38.38 0 0 1 .338-.218h3.067c.128 0 .248.068.315.174a.38.38 0 0 1 .023.359l-.87 1.92 2.655.42c.135.023.255.12.3.255a.38.38 0 0 1-.098.382M10.92 4.755q.526.923.592 2.025a.75.75 0 0 0 .743.713q.022.002.045-.007a.74.74 0 0 0 .705-.787 6.4 6.4 0 0 0-.585-2.34 2.393 2.393 0 0 1 2.235 2.384 2.4 2.4 0 0 1-2.393 2.393c-1.32 0-2.4-1.073-2.4-2.393 0-.824.42-1.553 1.058-1.988m3.277-3-.382-.089c-.12-.03-.248-.046-.375-.068a7 7 0 0 0-.383-.052c-.135-.008-.262-.023-.397-.03-.098-.008-.195-.008-.293-.008h-.105c-.135 0-.27 0-.397.008a5 5 0 0 0-.368.03q-.034-.002-.067.007c-.105.007-.21.023-.315.037a9 9 0 0 0-.825.174C8.287.174 6 .016 5.857 0a.76.76 0 0 0-.795.713.746.746 0 0 0 .705.787c.03 0 1.403.106 2.82.93a8 8 0 0 0-.802.495c-.075.061-.158.121-.233.181a7 7 0 0 0-.622.533q-.204.2-.398.411l-.007.008a10 10 0 0 0-.36.428c-.113.15-.225.308-.338.465-.067.098-.127.202-.195.307l-.18.316c-.067.127-.127.255-.187.375q-.014.03-.038.074l-.09.225A7.5 7.5 0 0 0 4.5 9.264v13.619A1.12 1.12 0 0 0 5.617 24H18.9a1.12 1.12 0 0 0 1.117-1.117V9.263a7.75 7.75 0 0 0-5.82-7.508" clip-rule="evenodd"/></svg>
